images/standarts/standart-3.svg

<svg width="25" height="24" fill="none" xmlns="http://www.w3.org/2000/svg"><g clip-path="url(#clip0_68_4514)"><path d="M8.5 10.341v2.194A3.999 3.999 0 1013.965 18h2.193A6.002 6.002 0 014.5 16a6.003 6.003 0 014-5.659zm4 6.659a3 3 0 01-3-3v-4a3 3 0 116 0v5h1.434a2 2 0 011.626.836l.089.135 2.708 4.515-1.714 1.028L16.933 17H12.5zm0-15a2.5 2.5 0 010 5 2.5 2.5 0 010-5z" fill="#fff"/></g><defs><clipPath id="clip0_68_4514"><path fill="#fff" transform="translate(.5)" d="M0 0h24v24H0z"/></clipPath></defs></svg>

<svg width="25" height="24" viewBox="0 0 25 24" fill="none" xmlns="http://www.w3.org/2000/svg">
<g clip-path="url(#clip0_68_4514)">
<path d="M8.5 10.341V12.535C7.304 13.227 6.5 14.52 6.5 16C6.5 18.21 8.29 20 10.5 20C11.98 20 13.273 19.196 13.965 18H16.158C15.335 20.33 13.112 22 10.5 22C7.186 22 4.5 19.314 4.5 16C4.5 13.387 6.17 11.165 8.5 10.341ZM12.5 17C10.843 17 9.5 15.657 9.5 14V10C9.5 8.343 10.843 7 12.5 7C14.157 7 15.5 8.343 15.5 10V15H16.934C17.582 15 18.187 15.314 18.56 15.836L18.649 15.971L21.357 20.486L19.643 21.514L16.933 17H12.5ZM12.5 2C13.88 2 15 3.12 15 4.5C15 5.88 13.88 7 12.5 7C11.12 7 10 5.88 10 4.5C10 3.12 11.12 2 12.5 2Z" fill="white"/>
</g>
<defs>
<clipPath id="clip0_68_4514">
<rect width="24" height="24" fill="white" transform="translate(0.5)"/>
</clipPath>
</defs>
</svg>
